X: 1
T: The Beeswing
R: hornpipe
M: 4/4
L: 1/8
K: Gmaj
DF|G>dB<G F>cA<F|D>BG<D B,>GD<B,|C>EA<c B,>DvG>vB|(3AGF (3GFE D2EF|
G>dB<g F>dA<f|C>GE<c B,>GD<B|C>EA>c B>AG>F|A2G2 G2:|
|:dc|B<Gd>B g>dB>G|A<Fd>A f>dA>F|E<CG>E c>AB>G|(3AGF (3GFE D2EF|
G>dB<g F>dA<f|C>GE<c B,>GD<B|C>EA>c B>AG>F|A2G2 G2:|
|:(3FGA|G>d (3BAG F>c (3AGF|G>d (3BAG D>CB,>D|C>EA<c B,>DG>B|(3A^GA (3ge^c d2D>E|
(3GBd (3gdB (3FAd (3fdA|(3CEG (3cGE (3B,DG (3BGD|C>EA>c B>AG>F|A2G2 G2:|
|:dc|(3BAG (3dBd (3gdc (3BAG|(3AGF (3dAd (3fdA (3AGF|
(3ECE (3GEG (3cBA (3BAG|(3A^GA (3ge^c d2D>E|
(3GBd (3gdB (3FAd (3fdA|(3CEG (3cGE (3B,DG (3BGD|C>EA>c B>AG>F|A2G2 G2:||


Tune 945	Setting 14138

